src/assets/svg/Icono_Vision.svg

<?xml version="1.0" encoding="utf-8"?>
<!-- Generator: Adobe Illustrator 25.1.0, SVG Export Plug-In . SVG Version: 6.00 Build 0)  -->
<svg version="1.1" id="Capa_1" xmlns="http://www.w3.org/2000/svg" xmlns:xlink="http://www.w3.org/1999/xlink" x="0px" y="0px"
	 viewBox="0 0 800 800" style="enable-background:new 0 0 800 800;" xml:space="preserve">
<style type="text/css">
	.st0{fill:#E30613;}
	.st1{fill:#FFFFFF;}
</style>
<path class="st0" d="M750.17,60.55V226.4c0,8.91-10.77,13.37-17.07,7.07l-40.5-40.5c-3.91-3.91-10.24-3.91-14.14,0L470.88,400.55
	l-63.64,63.64c-3.91,3.91-10.24,3.91-14.14,0l-55.71-55.71l-1.02-1.02c-3.91-3.91-10.24-3.91-14.14,0L121.88,607.8
	c-3.91,3.91-10.24,3.91-14.14,0l-56.57-56.57c-3.91-3.91-3.91-10.24,0-14.14l207.42-207.41l63.64-63.64
	c3.91-3.91,10.24-3.91,14.14,0l56.73,56.73c3.91,3.91,10.24,3.91,14.14,0l200.5-200.51c3.91-3.91,3.91-10.24,0-14.14l-40.5-40.5
	c-6.3-6.3-1.84-17.07,7.07-17.07h165.86C745.69,50.55,750.17,55.02,750.17,60.55z"/>
<path class="st0" d="M314.43,508.89V740c0,5.52-4.48,10-10,10h-30c-5.52,0-10-4.48-10-10V538.67c0-2.66,1.06-5.22,2.95-7.09
	l30-29.78C303.7,495.53,314.43,500,314.43,508.89z"/>
<path class="st0" d="M234.43,583.65V740c0,5.52-4.48,10-10,10h-30c-5.52,0-10-4.48-10-10V613.65c0-2.65,1.05-5.19,2.93-7.07l30-30
	C223.66,570.28,234.43,574.74,234.43,583.65z"/>
<path class="st1" d="M394.43,538.66V740c0,5.52-4.48,10-10,10h-30c-5.52,0-10-4.48-10-10V508.66c0-8.91,10.77-13.37,17.07-7.07
	l30,30C393.38,533.47,394.43,536.01,394.43,538.66z"/>
<path class="st1" d="M474.43,499.89V740c0,5.52-4.48,10-10,10h-30c-5.52,0-10-4.48-10-10V529.9c0-2.65,1.05-5.2,2.93-7.07l30-30.01
	C463.66,486.52,474.43,490.98,474.43,499.89z"/>
<path class="st0" d="M554.43,425.09V740c0,5.52-4.48,10-10,10h-30c-5.52,0-10-4.48-10-10V454.91c0-2.66,1.06-5.22,2.95-7.09
	l30-29.82C543.69,411.73,554.43,416.2,554.43,425.09z"/>
<path class="st0" d="M634.43,349.89V740c0,5.52-4.48,10-10,10h-30c-5.52,0-10-4.48-10-10V379.89c0-2.65,1.05-5.19,2.93-7.07l30-30
	C623.66,336.52,634.43,340.98,634.43,349.89z"/>
</svg>

<?xml version="1.0" encoding="utf-8"?>
<!-- Generator: Adobe Illustrator 25.1.0, SVG Export Plug-In . SVG Version: 6.00 Build 0)  -->
<svg version="1.1" id="Capa_1" xmlns="http://www.w3.org/2000/svg" xmlns:xlink="http://www.w3.org/1999/xlink" x="0px" y="0px"
	 viewBox="0 0 800 800" style="enable-background:new 0 0 800 800;" xml:space="preserve">
<style type="text/css">
	.st0{fill:#141E42;}
</style>
<path class="st0" d="M750.17,60.55V226.4c0,8.91-10.77,13.37-17.07,7.07l-40.5-40.5c-3.91-3.91-10.24-3.91-14.14,0L470.88,400.55
	l-63.64,63.64c-3.91,3.91-10.24,3.91-14.14,0l-55.71-55.71l-1.02-1.02c-3.91-3.91-10.24-3.91-14.14,0L121.88,607.8
	c-3.91,3.91-10.24,3.91-14.14,0l-56.57-56.57c-3.91-3.91-3.91-10.24,0-14.14l207.42-207.41l63.64-63.64
	c3.91-3.91,10.24-3.91,14.14,0l56.73,56.73c3.91,3.91,10.24,3.91,14.14,0l200.5-200.51c3.91-3.91,3.91-10.24,0-14.14l-40.5-40.5
	c-6.3-6.3-1.84-17.07,7.07-17.07h165.86C745.69,50.55,750.17,55.02,750.17,60.55z"/>
<path class="st0" d="M304.43,750h-30c-5.52,0-10-4.48-10-10V538.67c0-2.66,1.06-5.22,2.95-7.1l30-29.78
	c6.31-6.26,17.05-1.79,17.05,7.1V740C314.43,745.52,309.95,750,304.43,750z"/>
<path class="st0" d="M224.43,750h-30c-5.52,0-10-4.48-10-10V613.65c0-2.65,1.05-5.2,2.93-7.07l30-30c6.3-6.3,17.07-1.84,17.07,7.07
	V740C234.43,745.52,229.95,750,224.43,750z"/>
<path class="st0" d="M384.43,750h-30c-5.52,0-10-4.48-10-10V508.66c0-8.91,10.77-13.37,17.07-7.07l30,30
	c1.88,1.88,2.93,4.42,2.93,7.07V740C394.43,745.52,389.95,750,384.43,750z"/>
<path class="st0" d="M464.43,750h-30c-5.52,0-10-4.48-10-10V529.9c0-2.65,1.05-5.2,2.93-7.07l30-30c6.3-6.3,17.07-1.84,17.07,7.07
	V740C474.43,745.52,469.95,750,464.43,750z"/>
<path class="st0" d="M544.43,750h-30c-5.52,0-10-4.48-10-10V454.91c0-2.66,1.06-5.22,2.95-7.09l30-29.82
	c6.31-6.27,17.05-1.8,17.05,7.09V740C554.43,745.52,549.95,750,544.43,750z"/>
<path class="st0" d="M624.43,750h-30c-5.52,0-10-4.48-10-10V379.89c0-2.65,1.05-5.2,2.93-7.07l30-30c6.3-6.3,17.07-1.84,17.07,7.07
	V740C634.43,745.52,629.95,750,624.43,750z"/>
</svg>
